X:1412
T:Da Galley Watch
O:england
M:4/4
L:1/8
Q:1/4=220
C:Trad Shetland
R:reel
B:Fiddler's Fake Book
K:D
A2|:"D"defg afdf|"A"(3efe ce Aece|"D"defg afdf|[1"A"egfe "D"fddA:|[2"A"e
gfe "D"fddB||
"D"AD (3FED ADDB|"D"ADFD "A"EA A2|"D"DEFG EGFG|[1"A"egfe "D"fddB:|[2"A"e
gfe "D"d2 z2||


